X:27
T:Delgaty Knell
C:R. Petrie
S:Petrie's Second Collection of Strathspey Reels and Country Dances &c.
Z:Steve Wyrick , 6/5/04
N:Petrie's Second Collection, page 9
L:1/8
M:6/8
R:Jig
K:Gm
(d//=e//^f)|g2d (B/c/dB)|G3  G2 A/B/|cAF fcA|cAF F2^f|g2d (B/c/dB)|G3  G2g/a/|bag dg^f|g3 g2:|
 d         |gdg  bag    |gdg bag    |fcf agf|fcf agf |gdg  bag    |gdg bgf   |bag dg^f|g3 G2d|
            gdg  bag    |gdg bag    |fcf agf|fcf agf |BdB  AcA    |BAG g2a   |bag dg^f|g3 g2|]
